X: 23435
T: Leslie's March
R: jig
M: 6/8
K: Dmajor
|:d3 d3|dcB ABc|dcB AGF|G2F E2d|
e3 e3|fed eag|fed BAB|def e2d:|
|:fdd eAA|fed eAA|gfe fBB|gee fBB|
fdd eAA|fed eag|fed BAB|def e2d:|
|:dfa dfa|dfa afd|egb egb|egb bge|
dfa dfa|dfa a2g|fed BAB|def e2d:|

